!!!OTL: Hongjun weifengda
!!!ARE: Asia, China,ÿHunan Dayong
!! I, 520
!!!SCT: C2184
!!!YEM: Copyright 1995, estate of Helmut Schaffrath.
**kern
*ICvox
*Ivox
*M2/4
*k[f#]
*G:
{8a
8dd
8dd
8dd
=1
16dd
16b
4.dd
=2
8.ee
16dd
4b
=3
2a}
=4
{8dd
8b
8dd
8dd
=5
16b
16dd
4b
8g
=6
2a}
=7
{8b
8dd
4dd
=8
8dd
16b
16dd
4b
=9
8dd
16b
16dd
8dd
8b
=10
4.a
8g}
=11
{8g
8e
8e
8g
=12
4a
8g
8e
=13
2d}
=14
{8b
8a
8b
8g
=15
2a
=16
8dd
16b
16dd
8dd
8b
=17
4.a
8g
=18
8g
8e
8e
8g
=19
4a
8g
8e
=20
2d}
==
!!!AGN: Wuge, Huadeng diao
!!!ONB: ESAC (Essen Associative Code) Database: SENGANSU
!!!AMT: simple duple
!!!AIN: vox
!!!EED: Helmut Schaffrath
!!!EEV: 1.0
*-
